X: 37729
T: Soldier's Joy
R: hornpipe
M: 4/4
K: Dmajor
A2F2 ABAB|A2 d2 d2 cB|A2 F2 ABAB|A2 G2 F2F4|
A2F2 ABAB|A2 d2 d2 e2|f2 a2 gfge|d2 c2 d4:|
f2 de f2f2|edcd ef g2|f2 de f2f2|edcB A4|
f2 de f2f2|edcd ef g2|f2 a2 gfge|d2 c2 d2:|

